app/Resources/icons/list-ordered.svg

<svg xmlns="http://www.w3.org/2000/svg" viewBox="0 0 24 24">
    <g>
        <path fill="none" d="M0 0h24v24H0z"/>
        <path d="M8 4h13v2H8V4zM5 3v3h1v1H3V6h1V4H3V3h2zM3 14v-2.5h2V11H3v-1h3v2.5H4v.5h2v1H3zm2 5.5H3v-1h2V18H3v-1h3v4H3v-1h2v-.5zM8 11h13v2H8v-2zm0 7h13v2H8v-2z"/>
    </g>
</svg>

<svg xmlns="http://www.w3.org/2000/svg" viewBox="0 0 24 24"><path d="M8 4H21V6H8V4ZM5 3V6H6V7H3V6H4V4H3V3H5ZM3 14V11.5H5V11H3V10H6V12.5H4V13H6V14H3ZM5 19.5H3V18.5H5V18H3V17H6V21H3V20H5V19.5ZM8 11H21V13H8V11ZM8 18H21V20H8V18Z"></path></svg>
